!!!!SEGMENT: pl-wnifc--6020-n--004_cybulski-izydor-jozef--polonez.krn
!!!cenid: 18xx:3909
!!!COM: Cybulski, Izydor Józef
!!!COM-rismID: pe30085911
!!!CDT: <1802->1818
!!!CNT: Polish
!!!OTL: Polonez
!!!PDT:
!!!AGN:
!!!SMS-siglum: PL-Wnifc
!!!SMS-shelfmark: 6020/n
!!!SMS-variant:
!!!SMS-altvar:
!!!SMS-shelfwork: 004 W
!!!NIFC-rismSourceID: 1001132996
!!!NIFC-rismChildID: 1001133001
!!!NIFC-islandoraID: nifc:212574
!!!URL-pdf-islandora: https://repozytorium.nifc.pl/islandora/object/nifc%3A212574/datastream/PDF/view
!!!URL-scan: https://polish.musicsources.pl/pl/lokalizacje/galeria/druki-muzyczne/16847 @EN{Scan on Polish Music Sources Website} @PL{Skany w portalu Dziedzictwo Muzyki Polskiej w otwartym dostępie}
!!!ONB-nifc: UWAGA: s. 9
!!!AIN: 1 piano
!!!key: B-
**kern	**kern	**dynam
*part1	*part1	*part1
*staff2	*staff1	*
*I"Piano	*I"Piano	*
*Ipiano	*Ipiano	*
*ICklav	*ICklav	*
*clefF4	*clefG2	*
*k[b-e-]	*k[b-e-]	*
*B-:	*B-:	*
*M3/4	*M3/4	*
=1	=1	=1
8BBB-/L 8BB-	8dd\L 8bb-	ff
8BBB-/J 8BB-	(16dd\L 16ff	.
.	16cc#X\JJ) 16een	.
!LO:TX:t=P:problem:mixed beam	!	!
8BBB-/L 8BB-	8dd\L 8ff	.
8d\J 8f	8b-\J 8dd	.
8c\L 8e-	8ccn\L 8ee-X	.
8B-\J 8d	8dd\J 8ff	.
=2	=2	=2
8r	8.gg\L	p
8E-\ 8G 8c	.	.
.	16ee-\Jk	.
*tremolo	*	*
8E-\L 8G 8c	8cc\L	.
.	8qdd/	.
8E-\ 8G 8c	(16cc\L	.
.	16bn\JJ	.
8E-\ 8G 8c	16cc\LL)	.
.	16dd\	.
8E-\J 8G 8c	16ee-\	.
.	16cc\JJ	.
*Xtremolo	*	*
=3	=3	=3
8FF/L 8F	8a\L 8ff	ff
8FF/J 8F	(16a\L 16cc	.
.	16g#X\JJ) 16bn	.
!LO:TX:t=P:problem:mixed beam	!	!
8FF/L 8F	8a\L 8cc	p
8c\ 8e-	8a\ 8cc	.
8B-\ 8d	8b\ 8dd	.
8A\J 8c	8cc\J 8ee-	.
=4	=4	=4
8r	8.ff\L	.
8F\ 8B- 8d	.	.
.	16dd\Jk	.
*tremolo	*	*
8F\L 8B- 8d	8b-\L	.
.	8qcc/	.
8F\ 8B- 8d	16b-\L	.
.	(16a\JJ	.
8F\ 8B- 8d	16b-\LL	.
.	16cc\	.
8F\J 8B- 8d	16dd\	.
.	16b-\JJ)	.
*Xtremolo	*	*
=5	=5	=5
8c\L 8e-	8f/L	.
8F\	(16f/L	.
.	16en/JJ	.
!	!LO:TX:t=P:problem:mixed beam	!
8c\ 8e-	16f/LL)	.
.	(16aa\	.
8F\	16ccc\	.
.	16bb-\JJ	.
8c\ 8e-	16aa\LL	.
.	16gg\	.
8F\J	16ff\	.
.	16ee-\JJ)	.
=6	=6	=6
8B-\L 8d	(16dd\LL	.
.	16ee-\	.
8F\J	16een\	.
.	16ff\JJ)	.
*rep	*	*
8B-\L 8d	8bb-\L	.
8F\J	16ff\L	.
.	16dd\JJ	.
*Xrep	*	*
*rep	*	*
8B-\L 8d	8ff\L	.
8F\J	16dd\L	.
.	16b-\JJ	.
*Xrep	*	*
!!LO:LB:g=original
=7	=7	=7
8c\L 8e-	8cc\L	.
.	16qdd/	.
8F\J	16cc\L	.
.	16bn\JJ	.
*rep	*	*
!	!LO:TX:t=P:problem:mixed beam	!
8c\L 8e-	16cc\LL	.
.	16f/	.
8F\J	16g/	.
.	16a/JJ	.
*Xrep	*	*
*rep	*	*
8c\L 8e-	16b-X\LL	.
.	16cc\	.
8F\J	16dd\	.
.	16ee-\JJ	.
*Xrep	*	*
=8	=8	=8
8B-\L 8d	(16dd\LL	.
.	16b-\)	.
8F\J	(16ff\	.
.	16dd\JJ)	.
*rep	*	*
8B-\L 8d	(16bb-\LL	.
.	16ff\)	.
8F\J	(16ddd\	.
.	16ff\JJ)	.
*Xrep	*	*
*rep	*	*
8B-\L 8d	8fff\	.
8F\J	8r	.
*Xrep	*	*
=9	=9	=9
8c\L 8e-	8f/L	.
.	16qg/	.
8F\J	16f/L	.
.	16en/JJ	.
*rep	*	*
!	!LO:TX:t=P:problem:mixed beam	!
8c\L 8e-	(16f/LL	.
.	16aa\	.
8F\J	16ccc\	.
.	16bb-\JJ	.
*Xrep	*	*
*rep	*	*
8c\L 8e-	16aa\LL	.
.	16gg\	.
8F\J	16ff\	.
.	16ee-\JJ)	.
*Xrep	*	*
=10	=10	=10
8B-\L 8d	(16dd\LL	.
.	16ee-\	.
8F\J	16een\	.
.	16ff\JJ)	.
*rep	*	*
8B-\L 8d	8bb-\L	.
8F\J	(16ff\L	.
.	16dd\JJ)	.
*Xrep	*	*
*rep	*	*
8B-\L 8d	8ff\L	.
8F\J	(16dd\L	.
.	16b-\JJ)	.
*Xrep	*	*
=11	=11	=11
8r	8cc\L	.
.	8qqdd/	.
8E-\ 8G 8c	(16cc\L	.
.	16bn\JJ)	.
*tremolo	*	*
8E-\L 8G 8c	(16cc\LL	.
.	16dd\	.
8E-\ 8G 8c	16ee-\	.
.	16dd\JJ)	.
8E-\ 8G 8c	(16cc\LL	.
.	16ee-\	.
8E-\J 8G 8c	16gg\	.
.	16ee-\JJ)	.
*Xtremolo	*	*
=12	=12	=12
8F\L 8B- 8d	16dd\LL	.
.	16ff\	.
8F\J 8A 8c	16ee-\	.
.	16cc\JJ	.
8r	(4a\ 4cc	.
8F\ 8c 8e-	.	.
4B-\ 4d	8b-\)	.
.	8r	.
=13:|!|:	=13:|!|:	=13:|!|:
!LO:TX:t=P:problem:mixed beam	!	!
8FF/L	(16a\LL 16cc	.
.	16b-\ 16dd	.
8F\	16a\ 16cc	.
.	16g\JJ) 16b-	.
8FF/J	8f\L 8a	.
16r	8a'\ 8ff	.
(16c\	.	.
16e-\LL	8a'\ 8ff	.
16c\	.	.
16A\	8a'\J 8ff	.
16F\JJ)	.	.
=14	=14	=14
!LO:TX:t=P:problem:mixed beam	!	!
8BB-/L	(16dd\LL 16ff	.
.	16ee-\ 16gg	.
8B-\	16dd\ 16ff	.
.	16cc\JJ) 16ee-	.
8BB-/J	8b-\L 8dd	.
16r	8dd'\ 8bb-	.
(16d\	.	.
16B-\LL	8dd'\ 8bb-	.
16F\	.	.
16D\	8dd'\J 8bb-	.
16BB-\JJ)	.	.
=15	=15	=15
!LO:TX:t=P:problem:mixed beam	!	!
8FF/L	(16cc\LL 16ee-	.
.	16b-\ 16dd	.
8F\	16a\ 16cc	.
.	16b-\JJ) 16dd	.
8FF/J	8a\L 8cc	.
16r	8cc'\ 8ee- 8aa	.
(16F\	.	.
16FF/LL	8cc'\ 8ee- 8aa	.
16AA/	.	.
16C/	8cc'\J 8ee- 8aa	.
16F/JJ)	.	.
!!LO:LB:g=original
=16	=16	=16
!LO:TX:t=P:problem:mixed beam	!	!
8BB-/L	8dd\L 8bb-	.
16g\L	16bb-\L	.
16f\JJ	16aa\JJ	.
16e-\LL	(16gg\LL	.
16d\	16ff\	.
16c\	16ee-\	.
16B-\JJ	16dd\JJ	.
16A\LL	16cc\LL	.
16B-\	16dd\	.
16c\	16ee-\	.
16A\JJ	16cc\JJ)	.
=17	=17	=17
8B-\L	8dd\L	.
16e-\L	16gg\L	.
16d\JJ	16ff\JJ	.
16c\LL	16ee-\LL	.
16B-\	16dd\	.
16A\	16cc\	.
16G\JJ	16b-\JJ	.
16F\LL	16a\LL	.
16G\	16b-\	.
16A\	16cc\	.
16F#X\JJ	16a\JJ	.
=18	=18	=18
!LO:TX:t=P:problem:mixed beam	!	!
8G\L	8b-\L	<
16DD/L	8b-\ 8ff	.
16D\JJ	.	.
16EE-/LL	8b-\ 8gg	[
16E-/	.	.
16DD/	8b-\ 8ff	.
16D/JJ	.	.
16EE-/LL	8b-\ 8gg	.
16E-/	.	.
!	!LO:TX:b:i:t=da capo	!
16CC/	8cc\J 8ee- 8aa	.
16C/JJ	.	.
=19||	=19||	=19||
*k[b-e-a-]	*k[b-e-a-]	*
*M3/4	*M3/4	*
!	!LO:TX:a:i:t=Trio	!
8r	(16b-\LL	.
.	16g\)	.
8E-\L 8G 8B-	(16ee-\	.
.	16b-\JJ)	.
!	!LO:TX:b:i:t=dolce	!
8E-\ 8G 8B-	4gg\	.
8E-\ 8G 8B-	.	.
8E-\ 8G 8B-	(16ff\LL	.
.	16ee-\	.
8E-\J 8G 8B-	16dd\	.
.	16ee-\JJ)	.
=20	=20	=20
8r	(16dd\LL	.
.	16cc\	.
8E-\ 8A- 8c	16b-\	.
.	16cc\JJ)	.
*tremolo	*	*
8E-\L 8A- 8c	4.cc\	.
8E-\ 8A- 8c	.	.
8E-\ 8A- 8c	.	.
8E-\J 8A- 8c	(16dd\LL	.
.	16cc\JJ)	.
=21	=21	=21
8r	(16b-\LL	.
.	16an\	.
8E-\ 8F 8d	16b-\	.
.	16cc\JJ)	.
8E-\L 8F 8d	(8b-\L	.
8E-\ 8F 8d	16cc\L	.
.	16b-\JJ)	.
!	!LO:TX:b:i:t=Smorzando	!
8E-\ 8F 8d	(16b-/LL	.
.	16a-X/	.
8E-\J 8F 8d	16g/	.
.	16a-/JJ)	.
!!LO:LB:g=original
=22	=22	=22
8r	16a-/LL	.
.	16g/	.
8E-\ 8G 8c	16f/	.
.	16g/JJ	.
8E-\L 8G 8c	4.g/	.
8E-\ 8G 8c	.	.
8E-\ 8G 8c	.	.
8E-\J 8G 8c	8g/	.
=23	=23	=23
8r	(16b-\LL	.
.	16g\)	.
8E-\L 8G 8B-	(16ee-\	.
.	16b-\JJ)	.
8E-\ 8G 8B-	4gg\	.
8E-\ 8G 8B-	.	.
8G\ 8B- 8e-	(16ff\LL	.
.	16ee-\	.
8G\J 8B- 8e-	16dd\	.
.	16ee-\JJ)	.
=24	=24	=24
8r	(16dd\LL	.
.	16cc\	.
8A-\L 8c 8e-	16b-\	.
.	16cc\JJ)	.
8A-\ 8c 8e-	4.cc\	.
8A-\ 8c 8e-	.	.
8A-\ 8c 8en	.	.
8A-\J 8c 8e	8cc\	.
=25	=25	=25
8r	(16ff\LL	.
.	16een\)	.
8A-\ 8c 8f	(16gg\	.
.	16ff\JJ)	.
8A-\L 8c 8f	(16aa-\LL	.
.	16gg\)	.
8A-\ 8c 8f	(16bb-\	.
.	16aa-\JJ)	.
8A-\ 8c 8f	(16bbn\LL	.
.	16ccc\	.
8A-\J 8c 8f	16aa-\	.
.	16ff\JJ)	.
=26	=26	=26
8DD/L 8GG 8BB-	16gg\LL	.
.	16ee-\	.
8DD/J 8GG 8BB-	16aa-\	.
.	16ff\JJ	.
8r	4dd\ 4ff	.
8FF/ 8AA- 8C	.	.
4GG/ 4BB-	8ee-\	.
.	8r	.
*clefG2	*	*
=27:|!|:	=27:|!|:	=27:|!|:
8f/L 8a-	8.dd\L	.
8B-/	.	.
.	16ff\Jk	.
8f/ 8a-	4.bb-\	.
8B-/	.	.
8d/ 8f	.	.
8B-/J	8aa-\	.
=28	=28	=28
*Xtremolo	*	*
8e-/L 8g	8aa-\L	.
8B-/	8gg\J	.
8e-/ 8g	4.gg\	.
8B-/	.	.
8e-/ 8g	.	.
8B-/J	8eee-\	.
=29	=29	=29
!	!LO:TUP:a:problem:klamra łukowa i cyfra	!
8d/L 8f	(12eee-\L	.
.	12ddd\	.
8B-/J	.	.
.	12fff\J)	.
!	!LO:TUP:a:problem:klamra łukowa i cyfra	!
8d/L 8f	(12eee-\L	.
.	12ddd\	.
8B-/J	.	.
.	12ccc\J)	.
!	!LO:TUP:a:problem:klamra łukowa i cyfra	!
8d/L 8f	(12bb-\L	.
.	12ccc\	.
8B-/J	.	.
.	12aa-\J)	.
!!LO:LB:g=original
=30	=30	=30
8e-/L 8g	(16aa-\LL	.
.	16gg\)	.
8B-/J	(16ccc\	.
.	16bb-\JJ)	.
*rep	*	*
8e-/L 8g	4.bb-\	.
8B-/J	.	.
*Xrep	*	*
*rep	*	*
8e-/L 8g	.	.
8B-/J	(16gg\LL	.
.	16ee-\JJ)	.
*Xrep	*	*
=31	=31	=31
8f/L 8a-	8.dd\L	.
8B-/	.	.
.	16ff\Jk	.
8f/ 8a-	4.bb-\	.
8B-/	.	.
8f/ 8a-	.	.
8B-/J	8aa-\	.
=32	=32	=32
8r	16aa-\LL	.
.	16gg\J	.
8B-/L 8e- 8g	(8.gg\J	.
8B-/ 8e- 8g	.	.
.	16ff#X\LL	.
8B-/ 8e- 8g	16aa-\	.
.	16gg\JJ	.
8B-/ 8e- 8g	16ffn\LL)	.
.	16ee-\	.
8B-/J 8e- 8g	16dd\	.
.	16cc\JJ	.
*clefF4	*	*
=33	=33	=33
8r	16b-\LL	.
.	16an\J	.
8F\ 8An 8c 8e-	8.ff\J	.
*tremolo	*	*
8F\L 8A 8c 8e-	.	.
.	16een\LL	.
8F\ 8A 8c 8e-	16gg\	.
.	16ff\JJ	.
8F\ 8A 8c 8e-	16ff\LL	.
.	16ee-X\	.
8F\J 8A 8c 8e-	16dd\	.
.	16cc\JJ	.
*clefG2	*	*
=34	=34	=34
8B-/L 8d	16b-\LL	.
.	16an\	.
8c/ 8e-	16cc\	.
.	16a\JJ	.
8d/ 8f	16b-\LL	.
.	16a\	.
8e-/J 8g-X	16cc\	.
.	16a\JJ	.
4d/ 4f	8b-\L	.
!	!LO:TX:b:i:t=Trio da capo	!
.	8b-\J	.
==	==	==
*-	*-	*-
!!!RDF**kern: > = above
!!!RDF**kern: < = below
!!!system-decoration: {(s1,s2)}
!!!ENC: Marta Opryszak
!!!END: 2022-07-26
!!!ENC: Urszula Świątek
!!!END: 2022-08-22
!!!YEC: Copyright 2022 Narodowy Instytut Fryderyka Chopina (https://polishscores.org)
!!!YEM: License CC-BY-4.0 (https://creativecommons.org/licenses/by/4.0)
